icons/desktop/16/lock-slash-duotone-16.svg

<svg width="16" height="16" viewBox="0 0 16 16" fill="none" xmlns="http://www.w3.org/2000/svg">
<g clip-path="url(#clip0_19594_771)">
<path d="M5.5 4.43945V6.12305C6.037 6.07605 6.57626 6.06973 7.11426 6.05273L8.5791 7.51758C8.3861 7.51358 8.192 7.5 8 7.5C6.871 7.5 5.72752 7.57187 4.60352 7.71387C3.97474 7.79307 3.5 8.32916 3.5 8.95801V13.042C3.5 13.671 3.9622 14.2042 4.5752 14.2822C6.82513 14.5702 9.13756 14.5721 11.3965 14.2861C12.0253 14.2069 12.5 13.6708 12.5 13.042V11.4404L14 12.9404V13.042C14 14.425 12.962 15.5994 11.585 15.7744C10.398 15.9244 9.19197 16 8 16C6.795 16 5.57874 15.9235 4.38574 15.7715C3.02484 15.5974 2 14.4239 2 13.042V8.95801C2 7.71904 2.83605 6.65339 4 6.31836V4C4 3.675 4.05005 3.36352 4.12305 3.06152L5.5 4.43945Z" fill="context-fill"/>
<path d="M8 0C10.2059 7.83302e-05 12 1.79405 12 4V6.31641C13.1619 6.64249 14 7.71109 14 8.95801V11.1709L12.5 9.6709V8.95801C12.5 8.32901 12.0378 7.79577 11.4248 7.71777C11.1039 7.67679 10.778 7.65399 10.4541 7.625L8.88184 6.05273C9.42184 6.06873 9.963 6.07605 10.5 6.12305V4C10.5 2.62205 9.37893 1.50008 8 1.5C7.00807 1.5 6.15696 2.08492 5.75293 2.92383L4.65234 1.82324C5.36735 0.728272 6.59802 0 8 0Z" fill="context-fill"/>
<path d="M0.21967 0.21967C0.512563 -0.0732233 0.987324 -0.0732233 1.28022 0.21967L15.7802 14.7197C16.0731 15.0126 16.0731 15.4873 15.7802 15.7802C15.4873 16.0731 15.0126 16.0731 14.7197 15.7802L0.21967 1.28022C-0.0732233 0.987324 -0.0732233 0.512563 0.21967 0.21967Z" fill="context-stroke"/>
</g>
<defs>
<clipPath id="clip0_19594_771">
<rect width="16" height="16" fill="white"/>
</clipPath>
</defs>
</svg>

<!-- This Source Code Form is subject to the terms of the Mozilla Public
   - License, v. 2.0. If a copy of the MPL was not distributed with this
   - file, You can obtain one at http://mozilla.org/MPL/2.0/. -->
<svg xmlns="http://www.w3.org/2000/svg" width="16" height="16" fill-opacity="context-fill-opacity" viewBox="0 0 16 16">
    <path fill="context-fill" d="M5.5 4.44v1.683c.537-.047 1.076-.053 1.614-.07L8.58 7.518C8.386 7.514 8.192 7.5 8 7.5a27 27 0 0 0-3.396.214A1.26 1.26 0 0 0 3.5 8.958v4.084c0 .629.462 1.162 1.075 1.24 2.25.288 4.563.29 6.821.004a1.26 1.26 0 0 0 1.104-1.244V11.44l1.5 1.5v.102a2.76 2.76 0 0 1-2.415 2.732 28.7 28.7 0 0 1-7.2-.002A2.75 2.75 0 0 1 2 13.042V8.958c0-1.239.836-2.305 2-2.64V4c0-.325.05-.636.123-.938zM8 0c2.206 0 4 1.794 4 4v2.316c1.162.326 2 1.395 2 2.642v2.213l-1.5-1.5v-.713c0-.629-.462-1.162-1.075-1.24-.321-.041-.647-.064-.97-.093L8.881 6.053c.54.016 1.081.023 1.618.07V4c0-1.378-1.121-2.5-2.5-2.5-.992 0-1.843.585-2.247 1.424l-1.1-1.1A4 4 0 0 1 8 0" />
    <path fill="context-stroke" d="M.22.22a.75.75 0 0 1 1.06 0l14.5 14.5a.75.75 0 1 1-1.06 1.06L.22 1.28a.75.75 0 0 1 0-1.06" />
</svg>
